src/ui/asset/angle-up-small.svg

<svg width="24" height="24" viewBox="0 0 24 24" fill="none" xmlns="http://www.w3.org/2000/svg">
    <path fill-rule="evenodd" clip-rule="evenodd" d="M7.29289 13.7168C7.68342 14.0944 8.31658 14.0944 8.70711 13.7168L11.2929 11.2168C11.6834 10.8393 12.3166 10.8393 12.7071 11.2168L15.2929 13.7168C15.6834 14.0944 16.3166 14.0944 16.7071 13.7168C17.0976 13.3393 17.0976 12.7271 16.7071 12.3495L14.1213 9.84953C12.9497 8.71683 11.0503 8.71682 9.87868 9.84953L7.29289 12.3495C6.90237 12.7271 6.90237 13.3393 7.29289 13.7168Z" fill="#808080"/>
</svg>

<svg width="24" height="24" fill="none" xmlns="http://www.w3.org/2000/svg"><path fill-rule="evenodd" clip-rule="evenodd" d="M7.293 13.717c.39.377 1.024.377 1.414 0l2.586-2.5a1.025 1.025 0 011.414 0l2.586 2.5c.39.377 1.024.377 1.414 0a.944.944 0 000-1.367l-2.586-2.5a3.073 3.073 0 00-4.242 0l-2.586 2.5a.944.944 0 000 1.367z" fill="gray"/></svg>
